X: 36
T: Smash The Windows
B: begged borrowed and stolen
M:6/8
L:1/8
R: jig
Q: 3/8=100
K:Dmajor
V:1 
|:"D"DED F2A|d2f ecA|"G"G2B F2A|"A"E2F GFE|
"D" DED F2A|d2f ecA|"G"Bgf "A"edc|1 "D"d3 dAF:|2 "D"d3 efg||
 "D"a2f d2f|A2a agf|"A"g2e c2e|A2g gfe|
 "D"f2d "G"g2e|"D"agf "G"bag|"G"fed "A"ABc|"D"dAF Dza|
"D"agf fed|Adf agf|gfe ecA|
 Ace gfe | "D"fed "G"gfe | "D"agf "G"bag|"G"fed "A"ABc|"D"d3 d3||
% abcbook-tune_id 62828a3af9d18cef163117d9


% abcbook-boost 0
% abcbook-tablature 
% abcbook-transpose 
% abcbook-lastupdated 1652725431066
% abcbook-soundfonts 
% abcbook-repeats 3
% abc-sessionorg_id 101
% abc-sessionorg_setting 0
% abc-sessionorg_setting_id 101
% abc-boost 0

